X:1
T:Title
%%score { ( 1 4 ) | ( 2 3 ) }
L:1/8
Q:1/4=100
M:3/4
K:A
V:1 treble nm="Grand Piano"
V:4 treble 
V:2 bass 
V:3 bass 
V:1
 [Ec]4 [EB]2 | [EA]4 [EG]2 | F3 A [Fd][DF] | [DF]4 [CE]2 | [CE]2 [EA]2 B2 | c4 z2 | c4 z2 | F4 z2 | %8
 A2 c2 B2 | A4 [EG]2 | F3 A [Fd]F | [A,DF]4 [A,CE]2 | [CE]2 [EA]2 [EAc]2 | [Ae]4 [Ec]2 | %14
 [DGc]4 [DF]G | [CEA]4 z2 |] %16
V:2
 [A,,A,]4 [B,,G,]2 | [C,A,]4 [C,A,]2 | D4 z2 | [A,,A,]4 [A,,A,]2 | A,4 z2 | %5
 [A,E]2 [G,B,]2 [F,A,F]2 | C,3- [C,C] z [B,^E] | [F,A,]4 [E,B,D]2 | C2 E2 [E,G,D]2 | %9
 [F,A,C]4 [C,A,]2 | [D,A,]3- [D,A,F] z D | A,,4 A,,2 | z2 C2 A,2 | [A,C]4 [A,,A,]2 | %14
 z2 z[K:treble] B[K:bass] z E | A,,4 z2 |] %16
V:3
 x6 | x6 | [D,A,]3- [D,A,F] [D,A,]2 | x6 | A,,2 C,2 [E,G,E]2 | x6 | G,4 C,2 | x6 | A,4 z2 | x6 | %10
 D4 [D,A,]2 | x6 | A,4 z2 | x6 | E,4[K:treble][K:bass] E,2 | x6 |] %16
V:4
 x6 | x6 | x6 | x6 | x6 | z2 ^E2 c2 | ^E3- [EB] [CFA]G | z2 C2 G2 | x6 | x6 | x6 | x6 | x6 | x6 | %14
 x6 | x6 |] %16

